X:1
T:The Banks of Sweet Dundee
M:2/2
L:1/4
K:G
 D| E E G A| B B2G/2-B/2| A G E D| E3 B| d2 d e| d B G- B| d B A G|\
 B3 B| B d d e| d B G- B| d B G A| B3 D| E E G A| B B2 B| A G E D|\
 E3||

